X: 1602
T: Rast Sazsemâîsi
C: Kantemiroğlu
O: Turkey
F: http://compmusic.upf.edu/node/140
N: rast--sazsemaisi--aksaksemai----kantemiroglu
N: makam= rast
N: form= sazsemaisi
N: usul= aksaksemai = 10/8
M: 10/8
L: 1/16
K: C _1/4B ^f  
Q: 1/4=144
%%MIDI tuningsystem comma53
G4 ABG3AB2 AGG4e2  | d3=f e2d2 c2BA Bcd4z2  | 
w:  1. HANE  |   | 
BcBc d2e3=fed ced2 c2B2  | c4 B2c3Bed cBA4B2  | 
w:   |   | 
cdBc ABG4Bc Bcd4z2  | G4 dcd4e2 c2d4z2  | 
w:   |  TESLİM  | 
e3f g2a3bag fed4gf  | e2d2 c2B2 A2Bc ded4B2  | 
w:   |   | 
c4 A2BA BcB2 A2G2 F2G2  | A4 G2A3/2c/ BAAG GFG4z2  | 
w:   |   | 
G4 dcd4e2 c2d4z2  | e3f g2a3bag fed4gf  | \
w:  TESLİM  |   | 
e2d2 c2B2 A2Bc ded4B2  | 
w:   | 
c4 A2BA BcB2 A2G2 F2G2  | A4 G2A3/2c/ BAAG GFG4z2  | 
w:   |   | 
G4 A2B4cd Bcd4e2  | f4 efg3ef3/2g/ fed4c2  | \
w:  2. HANE  |   | 
B4 c2B3AB2 c2d4e2  | 
w:   | 
f2g2 a2g2 f2f3/2g/ fed4b2  | a2g2 f2e3ded efd4z2  | 
w:   |   | 
G4 dcd4e2 c2d4z2  | e3f g2a3bag fed4gf  | \
w:  TESLİM  |   | 
e2d2 c2B2 A2Bc ded4B2  | 
w:   | 
c4 A2BA BcB2 A2G2 F2G2  | A4 G2A3/2c/ BAAG GFG4z2  | 
w:   |   | 
G4 dcd4e2 c2d4z2  | e3f g2a3bag fed4gf  | \
w:  TESLİM  |   | 
e2d2 c2B2 A2Bc ded4B2  | 
w:   | 
c4 A2BA BcB2 A2G2 F2G2  | A4 G2A3/2c/ BAAG GFG4z2  | 
w:   |   | 
g4 f2g4d2 efg4z2  | efef g2a3gag fed4z2  | 
w:  3. HANE  |   | 
bagf efg3bag fga4c'2  | b2a2 b2c'2 d'e'd'c' bag4c'2  | 
w:   |   | 
b2a2 g2f3ded efd4z2  | G4 dcd4e2 c2d4z2  | \
w:   |  TESLİM  | 
e3f g2a3bag fed4gf  | 
w:   | 
e2d2 c2B2 A2Bc ded4B2  | c4 A2BA BcB2 A2G2 F2G2  | 
w:   |   | 
A4 G2A3/2c/ BAAG GFG4z2  | G4 dcd4e2 c2d4z2  | \
w:   |  TESLİM  | 
e3f g2a3bag fed4gf  | 
w:   | 
e2d2 c2B2 A2Bc ded4B2  | c4 A2BA BcB2 A2G2 F2G2  | 
w:   |   | 
A4 G2A3/2c/ BAAG GFG4z2  | G4 A2G4z2 FGA4B2  | \
w:   |  4. HANE  | 
G4 F2G2 FGA2 GAB4c2  | 
w:   | 
d4 e2d2 c2Bc BAB4c2  | A4 BcBA G2AG ABcd c2B2  | 
w:   |   | 
c4 d2c2 BABc Bcd4z2  | G4 dcd4e2 c2d4z2  | \
w:   |  TESLİM  | 
e3f g2a3bag fed4gf  | 
w:   | 
e2d2 c2B2 A2Bc ded4B2  | c4 A2BA BcB2 A2G2 F2G2  | 
w:   |   | 
A4 G2A3/2c/ BAAG GFG4z2  | G4 dcd4e2 c2d4z2  | \
w:   |  TESLİM  | 
e3f g2a3bag fed4gf  | 
w:   | 
e2d2 c2B2 A2Bc ded4B2  | c4 A2BA BcB2 A2G2 F2G2  | 
w:   |   | 
A4 G2A3/2c/ BAAG GFG4z2  | |


